static/img/menus/ico-relay-unlock.svg

<svg width="17" height="16" viewBox="0 0 17 16" fill="none" xmlns="http://www.w3.org/2000/svg">
<path d="M12.1667 4.63681C12.1715 4.15336 12.0764 3.67405 11.8872 3.22845C11.698 2.78286 11.4188 2.38044 11.0667 2.04601C10.7336 1.70715 10.334 1.43956 9.89251 1.25976C9.45107 1.07996 8.97717 0.991763 8.50003 1.0006C8.01609 0.991851 7.53533 1.07992 7.08648 1.25956C6.63763 1.4392 6.2299 1.70671 5.88764 2.04613C5.54539 2.38554 5.27563 2.78988 5.09449 3.23501C4.91335 3.68013 4.82454 4.15689 4.83336 4.63681V8.63664" stroke="black" stroke-width="2" stroke-linecap="round" stroke-linejoin="round"/>
<path d="M12.1667 4.63681C12.1715 4.15336 12.0764 3.67405 11.8872 3.22845C11.698 2.78286 11.4188 2.38044 11.0667 2.04601C10.7335 1.70715 10.3339 1.43956 9.89248 1.25976C9.45104 1.07996 8.97714 0.991763 8.5 1.0006C8.01606 0.991851 7.5353 1.07992 7.08645 1.25956C6.6376 1.4392 6.22987 1.70671 5.88761 2.04613C5.54536 2.38554 5.2756 2.78988 5.09446 3.23501C4.91332 3.68013 4.82451 4.15689 4.83333 4.63681V8.63664M4.83333 8.63664H12.9C13.6333 8.63664 14 8.93966 14 9.54569V14.0909C14 14.697 13.6333 15 12.9 15H4.1C3.36667 15 3 14.697 3 14.0909V9.54569C3 8.93966 3.36667 8.63664 4.1 8.63664H4.83333Z" stroke="#BBBBBB" stroke-linecap="round" stroke-linejoin="round"/>
<path d="M3 14V9C3 8.33333 3.36667 8 4.1 8H12.9C13.6333 8 14 8.33333 14 9V14C14 14.6667 13.6333 15 12.9 15H4.1C3.36667 15 3 14.6667 3 14Z" fill="#FFDF74" stroke="black" stroke-linecap="round" stroke-linejoin="round"/>
</svg>

<svg xmlns="http://www.w3.org/2000/svg" width="17" height="16" fill="none" viewBox="0 0 17 16"><path stroke="#000" stroke-linecap="round" stroke-linejoin="round" stroke-width="2" d="M12.167 4.637a3.51 3.51 0 0 0-1.1-2.591A3.5 3.5 0 0 0 8.5 1.001a3.63 3.63 0 0 0-2.612 1.045 3.57 3.57 0 0 0-1.055 2.59v4"/><path stroke="#bbb" stroke-linecap="round" stroke-linejoin="round" d="M12.167 4.637a3.51 3.51 0 0 0-1.1-2.591A3.5 3.5 0 0 0 8.5 1.001a3.63 3.63 0 0 0-2.612 1.045 3.57 3.57 0 0 0-1.055 2.59v4m0 0H12.9q1.1 0 1.1.91v4.545Q14 15 12.9 15H4.1Q3 15 3 14.09V9.547q0-.91 1.1-.91z"/><path fill="#ffdf74" stroke="#000" stroke-linecap="round" stroke-linejoin="round" d="M3 14V9q0-1 1.1-1h8.8Q14 8 14 9v5q0 1-1.1 1H4.1Q3 15 3 14"/></svg>
